X:1
T: The Donnybrook Boy
C:
R:Jig
Q:180
K:D
M:6/8
L:1/16
|:f2g2|a4f2 f2e2d2|a4d2 f2e2d2|b4g2 a4f2|e2f2e2 e2f2g2|
a4f2 f2e2d2|a4d2 f2e2d2|b4g2 a4f2|e2f2e2 d4:|
|:A2|d2c2d2 e2f2g2|e2f2d2 c2B2A2|B2d2B2 A2F2E2|E2F2E2 E4A2|
d2c2d2 e2f2g2|e2f2d2 c2B2A2|B2d2B2 A2F2E2|E2F2E2 D4:|
